X:1
T:The Creed
T:The Creed
T:John Playford
T:Source : The Whole Book of Psalms---London---W.Godbid---1677. Editor : André Vierendeels (27/08/16).
T:Notes : Original Clefs : G2, G2, F4, F4(BC) Editorial accidentals above the staff Original note values have been halved except m 3 and 8
T:©
T:©
C:John Playford
Z:©
%%score [ 1 2 ] 3
L:1/8
Q:1/4=96
M:2/2
K:G
V:1 treble nm="Soprano" snm="S"
V:2 treble-8 nm="Tenor" snm="T"
V:3 bass nm="MusicXML Part"
V:1
 E4 G2 F2 | E2 e2 d2 c2 | B8 || B4 d2 G2 | B2 A2 G4 | G4 d2 e2 | f2 B2 A2 G2 | d8 | A4 B2 E2 | %9
w: In God the|Fa- ther most of|might,|I do be-|lieve a- right,|Ma- ker of|hea- ven and of|earth,|with all that|
w: And Je- sus|Christ his on- ly|Son,|whose pure con-|cep- ti- on,|did by the|Ho- ly Spi- rit|come|born in the|
w: He un- der|Pi- late cru- ci-|fi'd,|suf- fer'd for|us and di'd,|Was bu- ri'd,|went to hell be-|neath:|the third day|
 G2 F2 !fermata!E4 |] %10
w: there have bright.|
w: Vir- gins wonb.|
w: rose from death:|
V:2
 B4 B2 A2 | G2 c2 B2 A2 | ^G8 || B4 A2 G2 | G2 F2 G4 | B4 A2 G2 | A2 G2 E2 G2 | F8 | F4 G2 A2 | %9
w: In God the|Fa- ther most of|might,|I do be-|lieve a- right,|Ma- ker of|hea- ven and of|earth,|with all that|
w: And Je- sus|Christ his on- ly|Son,|whose pure con-|cep- ti- on,|did by the|Ho- ly Si- rit|come|born in the|
w: He un- der|Pi- late cru- ci-|fi'd,|suf- fer'd for|us and di'd,|Was bu- ri'd,|went to hell be-|neath:|the third day|
 E2 ^D2 !fermata!E4 |] %10
w: there have bright.|
w: Vir- gins womb.|
w: rose from death:|
V:3
"^BC""^Bass" E,4 E,2 B,,2 | C,2 C,2 G,2 A,2 | E,8 ||"^(-natural)" G,4 F,2 E,2 | C,2 D,2 G,,4 | %5
w: In God the|Fa- ther most of|might,|I do be-|lieve a- right,|
w: And Je- sus|Christ his on- ly|Son,|whose pure con-|cep- ti- on,|
w: He un- der|Pi- late cru- ci-|fi'd,|suf- fer'd for|us and di'd,|
"^BC""^B" G,4 F,2 E,2 | D,2 G,2 C,2 E,2 | D,8 | D,4 G,,2 C,2 | A,,2 B,,2 !fermata!E,4 |] %10
w: Ma- ker of|hea- ven and of|earth,|with all that|there have bright.|
w: did by the|Ho- ly Spi- rit|come|born in the|Vir- gins womb.|
w: Was bu- ri'd,|went to hell be-|neath:|the third day|rose from death:|

